X:3
T:The Monaghan Twig
R:Reel
D:Paddy Keenan: Poirt an Ph\'iobaire
S:Tony McManus (stage à Ti Kendalc'h, avril 2003)
M:2/2
L:1/8
K:Amix
|| z4 z2ed |: "A (no 3d)" cAAB cded | cAAG E2ed 
           | cAAB cded | "G/A" BAGB d2ed :|
             "A (no 3d)" cdef gf "G/A" ed | cdef "A" e2ed
           | cd "A (no 3d)" ef g2ge | "G/A" dBGB d2ed 
           | "A (no 3d)" cded cd "G/A" ed | cAAA "A" cdef 
           | g2 "G/A" ge deed | "G/A" BAGB d4 |]

